Numix-GalliumOS/64/mimetypes/application-images.svg

<svg xmlns="http://www.w3.org/2000/svg" xmlns:xlink="http://www.w3.org/1999/xlink" width="64px" height="64px" viewBox="0 0 64 64" version="1.1">
<g id="surface1">
<path style=" stroke:none;fill-rule:nonzero;fill:rgb(21.960784%,63.921569%,30.588235%);fill-opacity:1;" d="M 10.671875 0 C 9.296875 0 8 1.355469 8 2.789062 L 8 61.210938 C 8 62.566406 9.375 64 10.671875 64 L 53.328125 64 C 54.625 64 56 62.566406 56 61.210938 L 56 18 L 38 0 Z M 10.671875 0 "/>
<path style=" stroke:none;fill-rule:nonzero;fill:rgb(0%,0%,0%);fill-opacity:0.196078;" d="M 42 18 L 56 32 L 56 18 Z M 42 18 "/>
<path style=" stroke:none;fill-rule:nonzero;fill:rgb(100%,100%,100%);fill-opacity:0.392157;" d="M 38 0 L 55.984375 18 L 40.757812 18 C 39.410156 18 38 16.574219 38 15.226562 Z M 38 0 "/>
<path style=" stroke:none;fill-rule:nonzero;fill:rgb(100%,100%,100%);fill-opacity:1;" d="M 21.546875 24 C 20.703125 24.078125 19.984375 24.976562 20 25.925781 L 20 46.121094 C 20.007812 47.113281 20.800781 48.007812 21.6875 48 L 42.355469 48 C 43.226562 47.984375 43.992188 47.105469 44 46.121094 L 44 25.925781 C 44.015625 24.921875 43.242188 24.007812 42.355469 24 Z M 22 26 L 42 26 L 42 40 L 35.957031 33.703125 L 34.539062 35.0625 L 32.378906 37.03125 L 31.058594 35.714844 L 27.667969 31.128906 L 22 38 Z M 22 26 "/>
</g>
</svg>

<svg xmlns="http://www.w3.org/2000/svg" viewBox="0 0 64 64">
 <g>
  <path d="m 10.672 0 c -1.375 0 -2.672 1.355 -2.672 2.789 l 0 58.42 c 0 1.355 1.375 2.789 2.672 2.789 l 42.656 0 c 1.297 0 2.672 -1.434 2.672 -2.789 l 0 -43.21 l -18 -18 m -27.328 0" style="fill:#37a34d;fill-opacity:1;stroke:none;fill-rule:nonzero"/>
  <path d="m 42 18 l 14 14 l 0 -14 m -14 0" style="fill:#000;fill-opacity:0.196;stroke:none;fill-rule:nonzero"/>
  <path d="m 38 0 l 17.984 18 l -15.227 0 c -1.348 0 -2.758 -1.426 -2.758 -2.773 m 0 -15.227" style="fill:#fff;fill-opacity:0.392;stroke:none;fill-rule:nonzero"/>
  <path d="m 21.547 24 c -0.844 0.078 -1.563 0.977 -1.547 1.926 l 0 20.2 c 0.008 0.992 0.801 1.887 1.688 1.879 l 20.668 0 c 0.871 -0.016 1.637 -0.895 1.645 -1.879 l 0 -20.2 c 0.016 -1 -0.758 -1.918 -1.645 -1.926 m -20.355 2 20 0 0 14 -6.04 -6.297 -3.578 3.328 -4.711 -5.902 -5.668 6.871" style="fill:#fff;fill-opacity:1;stroke:none;fill-rule:nonzero"/>
 </g>
</svg>
